resources/haticons/SVG/speaker_notes.svg

<!-- Generated by IcoMoon.io -->
<svg version="1.1" xmlns="http://www.w3.org/2000/svg" width="24" height="24" viewBox="0 0 24 24">
<title>speaker_notes</title>
<path d="M18 8.016v-2.016h-8.016v2.016h8.016zM18 11.016v-2.016h-8.016v2.016h8.016zM15 14.016v-2.016h-5.016v2.016h5.016zM8.016 8.016v-2.016h-2.016v2.016h2.016zM8.016 11.016v-2.016h-2.016v2.016h2.016zM8.016 14.016v-2.016h-2.016v2.016h2.016zM20.016 2.016q0.797 0 1.383 0.586t0.586 1.383v12q0 0.797-0.586 1.406t-1.383 0.609h-14.016l-3.984 3.984v-18q0-0.797 0.586-1.383t1.383-0.586h16.031z"></path>
</svg>

<svg xmlns="http://www.w3.org/2000/svg" width="24" height="24"><path d="M18 8.016V6H9.984v2.016H18zm0 3V9H9.984v2.016H18zm-3 3V12H9.984v2.016H15zm-6.984-6V6H6v2.016h2.016zm0 3V9H6v2.016h2.016zm0 3V12H6v2.016h2.016zm12-12q.797 0 1.383.586t.586 1.383v12q0 .797-.586 1.406T20.016 18H6l-3.984 3.984v-18q0-.797.586-1.383t1.383-.586h16.031z"/></svg>
